!!!COM: Ce/cile Chaminade
!!!CNT: Francais
!!!TXO: Francais
!!!OTL: "Tu me dirais"
!!!LYR: Ge/rard, Rosemonde
!!!ENC: Amanda Harris
!!!YOR: Album of Songs, Volume 1
!!!YOR: Da Capo Press
!!!ODT: 1891/
!!NB: Vocal melody and text encoded
**kern	**silbe
*clefG2	*
*k[b-]	*
*M4/4	*
*MM[Animato]	*
=1	=1
2r	.
8r	.
{8a	{Tu
8b-	me
8cc	di-
=2	=2
4.cc	-rais
8c	que
8d	l'on
8d	en-
8e	-tend
8e	le
=3	=3
4g	souf-
4f}	-fle,}
8r	.
{8f	{Qu'au
8g	sein
8a	des
=4	=4
4b	fleurs
4e	es-
8g	-hale
8f	un
8e	pa-
8d	-pil-
=5	=5
[2g	-lon,
8g]}	|}
{8g	{Et
8g	que
8g	l'on
=6	=6
4a-	a
8a-	re-
8a-	-trou-
4b-	-ve/
8cc	la
8cc	pan-
=7	=7
4a-	-tou-
4a-}	-fle}
8r	.
{8a-	{Qu'en
8b-	s'en-
8cc	-fuy-
=8	=8
4g	-ant
8g	lais-
8g	-sa
4g	choir
8g	Cen-
8g	-dril-
=9	=9
4g	-lon.
4.c}	|}
{8a	{Tu
8b-	me
8cc	di-
=10	=10
4.cc	-rais
8c	que
8d	ces
8d	vers
8e	sont
8e	en
=11	=11
4g	pro-
4f}	-se,}
8r	.
{8f	{Et
8g	qu'u-
8a	-ne
=12	=12
4b-	femme
8g	a
8e	gar-
4a	-de/
8f	des
8d	se-
=13	=13
2g#}	-crets,}
8r	.
{8e	{Que
8e	le
8e	lys
=14	=14
4.gn	parle
8f	et
8e	que
8e	l'a-
8d	-zur
8d	est
=15	=15
4ff	ro-
4.cc}	-se,}
{8a	{Vois
8b-	ma
8cc	fo-
=16	=16
8cc#	-lie,
8dd	a-
4.dd	-mi,
8e	je
8d	te
8cn	croi-
=17	=17
2f}	-rais.}
8r	.
{8a	{Tu
8b-	me
8cc	di-
=18	=18
4.cc	-rais
8c	que
8d	l'as-
8d	-tre
8e	qui
8e	sein-
=19	=19
4g	-til-
4f}	-le,}
8r	.
{8f	{Au
8g	ver
8a	lui-
=20	=20
4b-	-sant
4e	doit
8g	son
8f	e/-
8e	-clat
8d	joy-
=21	=21
[2g	-eux,
8g]}	|}
{8g	{Et
8g	que
8g	la
=22	=22
4.a-	nuit
8a-	ac-
8b-	-cro-
8b-	-che a\
8cc	sa
8cc	man-
=23	=23
4a-	-til-
4a-}	-le}
8r	.
{8a-	{Comme
8b-	un
8cc	bi-
=24	=24
4g	-jou
8g	le
8g	so-
4g	-leil
8g	ra-
8g	-di-
=25	=25
4g	-eux;
4.c}	|}
{8an	{Tu
8b-	me
8cc	di-
=26	=26
4.cc	-rais
8c	qu'il
8d	n'est
8d	plus
8e	u-
8e	-ne
=27	=27
4g	frai-
4f}	-se}
8r	.
{8f	{Dans
8g	les
8a	re-
=28	=28
4b-	-coins
8g	tout
8e	mous-
4a	-sus
8f	des
8d	fo-
=29	=29
2g#}	-re^ts,}
8r	.
{8e	{Et
8e	qu'u-
8e	-ne
=30	=30
4gn	plu-
4f	-me
8e	de
8e	ben-
8d	-ga-
8d	-li
=31	=31
4cc	pe\-
4.c}	-se}
{8e	{Plus
8f	qu'un
8g	cha-
=32	=32
8g#	-grin
8a	au
4.a	coeur,
8Bn	je
8A	te
8Gn	croi-
=33	=33
2c}	-rais.}
8r	.
{8a	{En
8b-	t'e/-
8cc	-cou-
=34	=34
4cc	-tant
8e-	tous
8e-	mes
4e-	dou-
8e-	-tes
8e-	d'eux-
=35	=35
2d	-me^-
4.d}	-mes}
8r	.
=36	=36
{4dd	{Tom-
8f	-bent
8f	sou-
4.f	-dain,
8f	vain-
=37	=37
2e}	-cus;}
8r	.
{8e	{tu
8e	me
8ee	di-
=38	=38
[1ee	-rais
=39	=39
2ee_	|
8ee]}	|}
{8e	{Que
8e	le
8e	bon-
=40	=40
8g	-heur
8f	ex-
4.f	-iste
8e	et
8e	que
8d	tu
=41	=41
4ff	m'ai-
4.cc}	-mes,}
{8a	{Vois
8b-	ma
8cc	fo-
=42	=42
8cc#	-lie,
8dd	a-
4.dd	-mi,
8e	je
8d	te
8c	coi-
=43	=43
[2f	-rais!
8f]}	|}
8r	.
4r	.
*-	*-
